src/assets/icons/mail-icon.svg

<svg width="20" height="20" viewBox="0 0 20 20" fill="none" xmlns="http://www.w3.org/2000/svg">
<path d="M16.6667 3.33333H3.33334C2.41286 3.33333 1.66667 4.07952 1.66667 4.99999V15C1.66667 15.9205 2.41286 16.6667 3.33334 16.6667H16.6667C17.5871 16.6667 18.3333 15.9205 18.3333 15V4.99999C18.3333 4.07952 17.5871 3.33333 16.6667 3.33333Z" stroke="#6DFFE9" stroke-width="2" stroke-linecap="round" stroke-linejoin="round"/>
<path d="M18.3333 5.83333L10.8583 10.5833C10.6011 10.7445 10.3036 10.83 10 10.83C9.69641 10.83 9.39895 10.7445 9.14167 10.5833L1.66667 5.83333" stroke="#6DFFE9" stroke-width="2" stroke-linecap="round" stroke-linejoin="round"/>
</svg>

<svg xmlns="http://www.w3.org/2000/svg" width="20" height="20" fill="none">
  <path stroke="#6DFFE9" stroke-linecap="round" stroke-linejoin="round" stroke-width="2" d="M16.667 3.333H3.333c-.92 0-1.666.747-1.666 1.667v10c0 .92.746 1.667 1.666 1.667h13.334c.92 0 1.666-.747 1.666-1.667V5c0-.92-.746-1.667-1.666-1.667Z"/>
  <path stroke="#6DFFE9" stroke-linecap="round" stroke-linejoin="round" stroke-width="2" d="m18.333 5.833-7.475 4.75a1.616 1.616 0 0 1-1.716 0l-7.475-4.75"/>
</svg>
